X: 1
T: Dandy Bash
M: 6/8
L: 1/8
R: jig
K: Gmaj
D|GFG EDE|G2B dBd|eAA BAG|E2A AGE|
GFG EDE|G2B dBd|edB AGE|G3 G2:|
|:B|d2g gfg|ege dBd|e2A ABd|gfg edB|
d2g gfg|eaf g2e|d2B AGE|G3 G2:|
